dist/svgs/core-ui-icons/free/cil-boat-alt.svg

<svg xmlns="http://www.w3.org/2000/svg" viewBox="0 0 512 512"><path d="M410.866 181.063A32.1 32.1 0 00380.793 160h-39.239l-16-96H221.112l16 96h-39.558l-16-96H77.112l16 96H48v88H16v200h427.727L496 282.466V248h-60.793zM298.446 96l10.667 64h-39.559l-10.666-64zm-144 0l10.667 64h-39.559l-10.666-64zM80 192h300.793l20.363 56H80zm383.222 88l-42.949 136H48V280z"/><path d="M80 320h32v32H80zm64 0h32v32h-32zm64 0h32v32h-32zm64 0h32v32h-32zm64 0h32v32h-32z"/></svg>

<svg xmlns="http://www.w3.org/2000/svg" viewBox="0 0 512 512">
  <path fill="var(--ci-primary-color, currentColor)" d="M410.866,181.063A32.1,32.1,0,0,0,380.793,160H341.554l-16-96H221.112l16,96H197.554l-16-96H77.112l16,96H48v88H16V448H443.727L496,282.466V248H435.207ZM298.446,96l10.667,64H269.554L258.888,96Zm-144,0,10.667,64H125.554L114.888,96ZM80,192H380.793l20.363,56H80Zm383.222,88L420.273,416H48V280Z" class="ci-primary"/>
  <rect width="32" height="32" x="80" y="320" fill="var(--ci-primary-color, currentColor)" class="ci-primary"/>
  <rect width="32" height="32" x="144" y="320" fill="var(--ci-primary-color, currentColor)" class="ci-primary"/>
  <rect width="32" height="32" x="208" y="320" fill="var(--ci-primary-color, currentColor)" class="ci-primary"/>
  <rect width="32" height="32" x="272" y="320" fill="var(--ci-primary-color, currentColor)" class="ci-primary"/>
  <rect width="32" height="32" x="336" y="320" fill="var(--ci-primary-color, currentColor)" class="ci-primary"/>
</svg>
